X:1
T:Dusting The Keys
T:Dusting The Keys
T:Showing you how to dust you Piano Keyboard with music
T:Music by EDWARD B. CLAYPOOLE
T:            Words by J. EDWARD KILLALEA
T:This number is also very good for dancing. Try it
T:Copyright 1923 by LEO. FEIST. Inc.,
T:Copyright 1923 by LEO. FEIST. Inc.,
T:Copyright 1923 by LEO. FEIST. Inc.,
T:Copyright 1923 by LEO. FEIST. Inc.,
T:Copyright 1923 by LEO. FEIST. Inc.,
C:Music by
Z:Words by
Z:Copyright 1923 by LEO. FEIST. Inc.,
%%score 1 { ( 2 4 ) | 3 }
L:1/8
Q:1/4=180
M:4/4
K:F
V:1 treble nm="Voice"
V:2 treble nm="Piano"
V:4 treble 
V:3 bass 
V:1
"^Moderato" z8 | z8 | z8 | z8 || f2 e2 d2 c2 | B2 A2 G2 F2 | E D E D E D2 G- | G4- G2 z2 | %8
w: ||||Our maid Han nah|plays pi- an- o|In a fun- ny kind o' way,|_ _|
 e2 d2 c2 B2 | A2 G2 F2 E2 | D C D C D C2 E- | E4- E2 z2 | F2 G2 A2 B2 | A c2 A- A4 | %14
w: When she shakes a|nif- ty dust rag|On our ba- by grand Stein- way,|_ _|As a maid she's|ter- ri- ble, _|
 B A B c- c B3 | A4 G4 | F2 G2 A2 c2 | A B2 d- d2 c2 | f z z2 z3/2 c/ d3/2 c/ | %19
w: Won't e- ven wash * the|dish- es|She would be un-|bear- a- ble, * But|I will tell you|
 f2 z2 z2 z3/2 ^c/ |:S d3/2 =B/ d3/2 ^G/ A3/2 =B/ c3/2 ^c/ | d3/2 =B/ c3/2 ^G/ A2 z3/2 G/ | %22
w: why. Oh,|she can tease the i- vo- ries And|coax the grand- est airs, She|
 A3/2 ^F/ G3/2 ^C/ D3/2 F/ G3/2 ^G/ | A3/2 ^F/ G3/2 ^C/ D2 z2 | %24
w: fills our house with mel- o- dies That|drive a- way our cares;|
 =C3/2 ^C/ D3/2 ^D/ E3/2 F/ ^F3/2 G/- | G6 z2 | F3/2 ^F/ G3/2 ^G/ A3/2 B/ =B3/2 c/- | c6 z3/2 ^c/ | %28
w: She can tick- le tunes all day long,|_|Nev- er hits a note that is wrong;|_ She|
 d3/2 =B/ d3/2 ^G/ A3/2 =B/ c3/2 ^c/ | d3/2 =B/ c3/2 ^G/ A2 z3/2 G/ | %30
w: sharps the C's and E's and G's And|flats the B's and D's, And|
 A3/2 ^F/ G3/2 ^C/ D3/2 F/ G3/2 ^G/ | A3/2 ^F/ G3/2 ^C/ D3 z | %32
w: she can charm the sweet- est harm- o-|nies with per- fect ease,|
 =C3/2 ^C/ D3/2 ^D/ E3/2 F/ ^F3/2 G/- | G3/2 c/ A3/2 c/ A G3 | F8- |1 F z z2 z2 z3/2 ^c/ :|2 %36
w: Ev- 'ry time she makes up her mind;|* By dust- ing off the|keys.|_ Oh,|
 F z z2 z4!dacoda! |] z8 | z8 | z8 | z4 c3 F- | F3/2 C/ c3/2 C/ c B2 A- | A2 z2 A3 D- | %43
w: ||||Oh Gee!|_ how she can jazz a rag,|_ When she|
 D3/2 D/ A3/2 C/ A G2 F- | F2 z2 d3 G- | G2 G3/2 G/ G F2 E- | E2 z2 e3 c- | c2 z2 z4 | z4 c3 F- | %49
w: _ gets on a tun- ey jag,|_ Then she|_ plays a croon- ey drag,|_ I'll say.|_|You should|
 F3/2 G/ f3/2 G/ f _e2 _d- | d2 z2 =A3 D- | D3/2 ^F/ e3/2 F/ e d2 c- | c2 z2 d3 G- | %53
w: _ hear her ma- nip- u- late,|_ You would|_ say she can syn- co- pate,|_ She's good!|
 G3/2 =B/ A3/2 B/ A G2 F- | F2 z2 d3 f- | f z z2 z3/2 c/ d3/2 c/ |S f z z2 z2 z3/2 ^c/!D.S.! || %57
w: _ I know that you will state,|_ "I'll stay|_ and hear her|play!" Oh|
[K:C]O z/ | z8 | z8 | z8 | z8 | z8 | z8 | z8 | z8 | z8 | z8 | z8 | z8 | z8 | z8 | z8 | z8 |] %74
w: |||||||||||||||||
V:2
!f!{CDE} !>!F z{DEF} !>!G z{EFG} !>!A z{FGA} !>!B z | %1
{GAB} !>!c z{ABc} !>!d z{Bcd} !>!e z{cde} !>!f z |"_L.H." z [fg] !>![fa]2 [fg] !>![fa]2 [fg] | %3
 !>![ec']2 z2 !>![cec']2 z2 ||!p!{cde} !>!f z{cd} .e z{Bc} .d z{AB} .c z | %5
{GA} .B z{FG} .A z{EF} .G z{DE} .F z | [=B,E]D[B,E]D [B,E] [B,D]2 [B,FG]- | %7
 z3/2 d<[=Be]d/ [Bfg]2 z2 |{_Bcd} !>!e z{Bc} .d z{AB} .c z{GA} .B z | %9
{FG} .A z{EF} .G z{DE} .F z{CD} .E z | [A,D]C[A,D]C [^G,D] [G,C]2 [A,E]- | z3/2 c<[Ad]c/ [Ad]2 z2 | %12
{CDE} F z{DEF} G z{EFG} .A z{GAB} .c z | [^FA] [Fc]2 [FA]- [FA]4 | %14
 [GB][^FA][=FB]!>![Ec]- [Ec] [DB]3 | (A4 G4) |{CDE} !>!F z{DEF} .G z{EFG} .A z{FGA} .B z | %17
 [^FA] [Fc]2 [=F=Bd]- [FBd]2 [E_Bc]2 | [FAf] z (7:4:7F/G/A/=B/c/d/e/ f3/2 (c<[E^Gd]c/ | %19
 !>![FAf]2) z2 z2 z3/2 (^c/ |:!mf!"_2nd time play octave higher" d>)(=Bd>)(^G A>)(=Bc>)(^c | %21
 !>!d>)(=Bc>)(^G A2) z3/2 (G/ | A>)(^FG>)(^C D>)(FG>)(^G | A>)(^FG>)(^C D2) z2 | %24
 =C>(^CD>)(^D E>)(F^F>)G- | G>(c[EA]>)c (A G3) | F>^FG>^G A>B=B>c- | c>f[Ad]>f d c2 z/ (^c/ | %28
 !>!d>)(=Bd>)(^G A>)(=Bc>)(^c | !>!d>)(=Bc>)(^G A2) z3/2 (G/ | A>)(^FG>)(^C D>)(FG>)(^G | %31
 A>)(^FG>)(^C D3) z | =C>(^CD>)(^D E>)(F^F>)G- | G>c[EA]>c (A G3) | %34
 Fz/(C<[Ac])(C/ [^G=B]) [=G_B]2 [FA]- |1 [FA] z z2 z2 z3/2 ^c/ :|2 %36
{/x-} [FA] z z2 !>![FAcf] z"_Fine" z2 |]!f! [EBc] [EBc]2 !>![FB_d]- [FBd]_e [FBd]2 | %38
 [EBc] [EBc]2 !>![FB_d]- [FBd]_e [FBd]2 | [EBc]2 [CEc]2 [DFc]2 [^D^Fc]2 | [EGc]4 c3 F- | %41
 z3/2 c<ac/ [ac'] [gb]2 [fa]- | [fa]2 z2 !>!A3 !>!D- | z3/2 =B<[fa]B/ [fa] [eg]2 [df]- | %44
 [df]2 z2 !>!d3 !>!G- | z3/2 _B<[eg]B/ [eg] [df]2 [ce]- | [ce]2 z2 !>![e^ge']3 !>![cfc']- | %47
!f! [cfc']z/(_d'/c')z/(b/ a)z/(_g/f)z/(_d/ | c) z z2 !>![c_ac']3 !>![F_df]- | %49
 [Fdf]>G[_df]>G [df] [c_e]2 [Bd]- | [Bd]2 z2 [=A^c=a]3 [D^F=d]- | %51
 [DFd]>^F[=ce]>F [ce] [=Bd]2 [Ac]- | [Ac]2 z2 [dd']3 [Gg]- | [Gg]>=B[fa]>B [fa] [eg]2 [df]- | %54
 [df]2 z2 [_Bd]3 [Af]- | [Af]>c [^Gd^g]2- [Gdg]>c[Gd]>c | [Af] z"_D.S. Chorus" z2 z2 z3/2 ^c/ || %57
[K:C]"^Novelty \"Dust Rag\" arrangement of Chorus.\nTo be played by wrapping a dust-rag, or handkerchief, around the forefinger of the right hand, and then\nsliding the finger from the black keys to the white, as if \"dusting the keys.\"" (^g/ | %58
!mf! a)z/(^f/g)z/(^d/ e)z/(^f/g)z/(^g/ | a)z/(^f/g)z/(^d/ e3) z/ (^d/ | %60
 !>!e)z/(^c/d)z/(^G/ A)z/(c/d)z/(^d/ | !>!e)z/(^c/d)z/(^G/ A3) z/ (^F,/ | %62
 !>!G,)z/(^G,/A,)z/(^A,/ B,)z/(^C/D)z/(^F/ | G)z/(^G/A)z/(^A/ B)z/(^c/d)z/(^d/ | %64
 e)z/(_d/c)z/(_B/ A)z/(_A/G)z/(^D/ | E)!<(!z/(^F/G)z/(^G/ A)z/(^d/e)z/(^g/!<)! | %66
 !>!a)z/(^f/g)z/(^d/ e)z/(^f/g)z/(^g/ | !>!a)z/(^f/g)z/(^d/ e3) z/ (^d/ | %68
 e)z/(^c/d)z/(^G/ A)z/(c/d)z/(^d/ | !>!e)z/(^c/d)z/(^G/ A3) z/ (^F,/ | %70
 !>!G,)z/(^G,/A,)z/(^A,/ B,)z/!<(!(^C/D)z/(^F/ | G)z/(^G/A)z/(^A/ B)!<)! g3 | %72
 !>![gabc'd'] z !>![defga] z !>![GABcd] z"_Throw\nRag away" !>![DEFGA] z | %73
"^Play" z2 !>![Bfg] z !>![cegc'] z z2 |] %74
V:3
 !arpeggio![F,,C,A,] z z2 z4 | z8 | x8 | x2 z2 !arpeggio!!>![C,G,E]2 z2 || %4
 !arpeggio!!>![F,,C,A,] z z2 z4 | z8 | [F,,F,]2 G,2 G,,2 G,2 | [D,,D,]2 [G,=B,F]2 G,,2 [G,B,F]2 | %8
 !arpeggio!!>![C,G,E] z z2 z4 | z8 | F,,2 C,2 C,,2 C,2 | F,,2 [F,A,C]2 C,,2 [F,A,C]2 | %12
 !arpeggio![F,,C,A,] z z2 z4 | [A,,A,]2 [A,CD]2 [D,,D,]2 [D,^F,C]2 | %14
 [G,,G,]2 [G,B,D]2 [C,,C,]2 [C,E,B,]2 | [A,,E,]2 [D,^F,]2 [G,,=F,]2 [C,E,]2 | %16
 !arpeggio!!>![F,,C,A,] z z2 z4 | [D,,D,]2 [D,^F,C]2 [G,,G,]2 [C,C]2 | %18
 !arpeggio!!>![F,,C,A,] z z2 z2 ([C,B,]2 | %19
 !arpeggio!!>![F,,C,A,]2) ([C,A,]2 [=B,,^G,]2 [_B,,=G,]2 |: [A,,^F,]2) [D,F,C]2 [D,,D,]2 [D,F,C]2 | %21
 A,,2 [D,^F,C]2 !>![D,,D,]2 !>![C,,C,]2 | !>![=B,,,=B,,]2 [=F,G,=B,]2 G,,2 [F,G,B,]2 | %23
 [D,,D,]2 [F,G,=B,]2 !>![G,,G,]2 !>![F,,F,]2 | !>![E,,E,]2 [G,_B,C]2 [C,,C,]2 !>![^D,,^D,]2 | %25
 !>![E,,E,]2 !>![G,B,C]2 !>![C,C]2 !>![B,,B,]2 | !>![A,,A,]2 [A,C]2 [C,,C,]2 !>![^G,,^G,]2 | %27
 !>![A,,A,]2 [A,CF]2 !>![F,,F,]2 !>![_E,,_E,]2 | [A,,^F,]2 [D,F,C]2 [D,,D,]2 [D,F,C]2 | %29
 A,,2 [D,^F,C]2 !>![D,,D,]2 !>![C,,C,]2 | !>![=B,,,=B,,]2 [=F,G,=B,]2 G,,2 [F,G,B,]2 | %31
 [D,,D,]2 [F,G,=B,]2 !>![G,,G,]2 !>![F,,F,]2 | [E,,E,]2 [G,_B,C]2 [C,,C,]2 [^D,,^D,]2 | %33
 [E,,E,]2 [G,B,C]2 [C,,C,]2 [G,B,C]2 | !arpeggio![F,,C,A,] z [C,,C,] z [D,,D,] z [E,,E,] z |1 %35
 [F,,F,] z ([C,A,]2 [=B,,^G,]2 [_B,,=G,]2) :|2 [F,,F,] z z2 !arpeggio!!>![F,,C,A,] z z2 |] %37
 C C2 !>!G,- G,2 G,2 | C C2 !>!G,- G,2 G,2 | C2 [C,G,]2 [C,_A,]2 [C,=A,]2 | [C,B,]4 z4 | %41
 !arpeggio![F,,C,A,]2 [A,CF]2 [C,,C,]2 [A,CF]2 | [F,,F,]2 [A,CF]2 [D,,D,]2 [F,A,D]2 | %43
 G,,2 [G,=B,F]2 G,,2 [G,B,F]2 | =B,,2 [G,=B,F]2 G,,2 [G,B,F]2 | C,2 [_B,CE]2 G,,2 [B,CE]2 | %46
 C,2 [B,CE]2 [C,,C,]2 [B,CE]2 | %47
 !arpeggio![F,,C,A,]z/[I:staff -1](_d/c)[I:staff +1]z/[I:staff -1](B/ A)[I:staff +1]z/[I:staff -1](_G/F)[I:staff +1]z/[I:staff -1](_D/ | %48
 C)[I:staff +1] z z2 !arpeggio!!>![_B,,F,D]4 | %49
 !arpeggio![_E,,B,,G,]2 [_E,G,_D]2 [B,,,B,,]2 [E,G,D]2 | %50
 [_E,,_E,]2 [E,G,_D]2 [=A,,=E,^C]2 [G,A,C]2 | [D,,A,,^F,]2 [A,=CD]2 [A,,,A,,]2 [^F,CD]2 | %52
 [D,,D,]2 [^F,CD]2 A,,2 [F,CD]2 | [G,,G,]2 [G,=B,=F]2 [D,,D,]2 [G,B,F]2 | %54
 [G,,G,]2 [G,=B,F]2 [C,,C,]2 [C,E,_B,]2 | !arpeggio![F,,C,A,] z _B,4 ([C,B,]2 | %56
 !arpeggio![F,,C,A,]) z [C,A,]2 [=B,,^G,]2 [_B,,=G,]2 ||[K:C] z/ | [E,,E,]2 [A,^CG]2 A,,2 [A,CG]2 | %59
 E,2 [A,^CG]2 !>![A,,A,]2 !>![G,,G,]2 | !>![^F,,^F,]2 [D,F,=C]2 [D,,D,]2 [D,F,C]2 | %61
 A,,2 [D,^F,C]2 !>![D,,D,]2 !>![C,,C,]2 | !>![B,,,B,,] z z2 z4 | z8 | z8 | z8 | %66
 [E,,E,]2 [A,^CG]2 [A,,,A,,]2 [A,CG]2 | E,2 [A,^CG]2 !>![A,,A,]2 !>![G,,G,]2 | %68
 !>![^F,,^F,]2 [D,F,=C]2 [D,,D,]2 [D,F,C]2 | A,,2 [D,^F,C]2 !>![D,,D,]2 !>![C,,C,]2 | %70
 !>![B,,,B,,] z z2 z4 | z8 | z8 | z2 !>![G,,G,] z !>![C,,C,] z z2 |] %74
V:4
 x8 | x8 | !>![DF=B] z !>![DFB] z !>![_DFB] z !>![DFB] z | !>![CG_B]2 x6 || x8 | x8 | x8 | %7
 [B,FG]4- [B,FG]2 x2 | x8 | x8 | x8 | [A,E]4- [A,E]2 x2 | x8 | x8 | x8 | (^C2 =C2 =B,2 _B,2) | x8 | %17
 x8 | x2 z2 z x3 | x8 |: x8 | x8 | x8 | x8 | x8 | x4 E4 | x8 | x4 A3 x | x8 | x8 | x8 | x8 | x8 | %33
 x4 E4 | x8 |1 x8 :|2 x8 |] x8 | x8 | x8 | x8 | F8- | F2 x6 | D8- | D2 x6 | G8- | G2 x6 | x8 | x8 | %49
 x8 | x8 | x8 | x8 | x8 | x8 | x8 | x8 ||[K:C] x/ | x8 | x8 | x8 | x8 | x8 | x8 | x8 | x8 | x8 | %67
 x8 | x8 | x8 | x8 | x8 | x8 | x8 |] %74

